**kern	**kern	**dynam
*part1	*part1	*part1
*staff2	*staff1	*
*I"Piano	*	*
*clefF4	*clefG2	*
*k[b-e-a-d-]	*k[b-e-a-d-]	*
*M2/2	*M2/2	*
*met(c|)	*met(c|)	*
=1	=1	=1
4C'	4c' 4en 4g	.
=	=	=
4F'	4c' 4f 4a-	.
4r	2cc^	.
4r	.	.
4C'	4c' 4en 4g	.
=	=	=
4F'	4c' 4f 4a-	.
2c^	4r	.
.	4r	.
4C'	4c' 4en 4g	.
=	=	=
4F'	4c' 4f 4a-	.
4r	2cc^	.
4A-'	.	.
[4d-	4f 4a-	fp
=	=	=
!	!LO:TX:b:i:t=dim.	!
(4d-']	(4f' 4a- 4dd-	.
4c'	4f' 4an 4dd-	.
4B-'	4f' 4b- 4dd-	.
4A-')	4f-X') 4b- 4dd-	.
=	=	=
4G'	4e-^ 4b- 4dd-	.
2E-^	8e-L 8a- 8cc	.
.	8e-J 8g 8b-	.
.	4e-^ 4a- 4cc	.
4A-'	8d-L 8e- 8b-	.
.	8cJ 8e- 8a-	.
=	=	=
4D-'	4d-'	.
8C'L	8c'L	.
8BB-'J	8B-'J	.
4BB-'	4B-'	.
4BBn'	4Bn'	.
=	=	=
*-	*-	*-
!!!system-decoration: {(s1,s2)}
